icons/svg/seamark/building_customs.svg

<?xml version="1.0" encoding="UTF-8" standalone="no"?>
<svg
   xmlns:dc="http://purl.org/dc/elements/1.1/"
   xmlns:cc="http://creativecommons.org/ns#"
   xmlns:rdf="http://www.w3.org/1999/02/22-rdf-syntax-ns#"
   xmlns:svg="http://www.w3.org/2000/svg"
   xmlns="http://www.w3.org/2000/svg"
   xmlns:sodipodi="http://sodipodi.sourceforge.net/DTD/sodipodi-0.dtd"
   xmlns:inkscape="http://www.inkscape.org/namespaces/inkscape"
   width="580"
   height="580"
   id="svg2"
   version="1.1"
   inkscape:version="0.48.4 r9939"
   sodipodi:docname="building_customs.svg">
  <defs
     id="defs13">
    <inkscape:path-effect
       effect="gears"
       id="path-effect3774"
       is_visible="true"
       teeth="6"
       phi="-1.2" />
    <inkscape:path-effect
       effect="bend_path"
       id="path-effect3772"
       is_visible="false"
       bendpath="m 95.790098,316.51174 c 144.429032,-206.42506 223.313032,-11.7428 339.548092,0"
       prop_scale="1.19"
       scale_y_rel="false"
       vertical="false"
       bendpath-nodetypes="cc" />
  </defs>
  <sodipodi:namedview
     pagecolor="#ffffff"
     bordercolor="#666666"
     borderopacity="1"
     objecttolerance="10"
     gridtolerance="10"
     guidetolerance="10"
     inkscape:pageopacity="0"
     inkscape:pageshadow="2"
     inkscape:window-width="1326"
     inkscape:window-height="739"
     id="namedview11"
     showgrid="false"
     inkscape:zoom="0.40689655"
     inkscape:cx="74.669735"
     inkscape:cy="295.70441"
     inkscape:window-x="40"
     inkscape:window-y="1024"
     inkscape:window-maximized="1"
     inkscape:current-layer="svg2"
     inkscape:snap-object-midpoints="true"
     inkscape:snap-page="true" />
  <metadata
     id="metadata2975">image/svg+xmlen<rdf:RDF>
  <cc:Work
     rdf:about="">
    <dc:format>image/svg+xml</dc:format>
    <dc:type
       rdf:resource="http://purl.org/dc/dcmitype/StillImage" />
    <dc:title />
  </cc:Work>
</rdf:RDF>
</metadata>
  <path
     sodipodi:type="arc"
     style="opacity:0.61739131;color:#000000;fill:#fefefe;fill-opacity:1;stroke:none;stroke-width:26.05776978;marker:none;visibility:visible;display:inline;overflow:visible;enable-background:accumulate"
     sodipodi:cx="252.52119"
     sodipodi:cy="231.63135"
     sodipodi:rx="284.15234"
     sodipodi:ry="284.15234"
     d="m 536.67354,231.63135 a 284.15234,284.15234 0 1 1 -568.304689,0 284.15234,284.15234 0 1 1 568.304689,0 z"
     transform="matrix(0.78253689,0,0,0.7896367,92.392846,107.09539)"
     id="path2987-2" />
  <path
     style="fill:none;stroke:#000000;stroke-width:12.02984238;stroke-linecap:round;stroke-linejoin:round;stroke-miterlimit:10;stroke-dasharray:none"
     inkscape:connector-curvature="0"
     stroke-miterlimit="10"
     d="M 390.91176,180.48384 V 155.2211 L 288.65778,144.39421 c -4.81194,-0.60149 -7.81941,4.81195 -5.41343,8.4209 l 23.45826,27.66873"
     id="path3" />
  <path
     style="fill:none;stroke:#000000;stroke-width:12.02984238;stroke-linecap:round;stroke-linejoin:round;stroke-miterlimit:10;stroke-dasharray:none"
     inkscape:connector-curvature="0"
     stroke-miterlimit="10"
     d="m 208.05764,312.81245 h -57.1419 c -3.60896,0 -6.01494,-1.20299 -6.61642,-4.81196 l -18.04483,-88.41957 c -0.60149,-4.21045 0.60151,-9.0224 7.21793,-9.0224 l 55.33743,0 c 4.21045,0 7.21792,1.80448 7.8194,5.41345 l 18.04482,90.22404 c 0.60149,3.00746 -1.20299,6.61644 -6.61643,6.61644 z"
     id="path5" />
  <path
     style="fill:none;stroke:#000000;stroke-width:12.02984238;stroke-linecap:round;stroke-linejoin:round;stroke-miterlimit:10;stroke-dasharray:none"
     inkscape:connector-curvature="0"
     stroke-miterlimit="10"
     d="m 131.06645,211.16001 74.58521,-30.67617 c 3.00747,-0.6015 6.01494,1.20299 6.61643,4.21045 l 20.45079,102.85541"
     id="path7-7" />
  <path
     style="fill:none;stroke:#000000;stroke-width:12.02984238;stroke-linecap:round;stroke-linejoin:round;stroke-miterlimit:10;stroke-dasharray:none"
     inkscape:connector-curvature="0"
     stroke-miterlimit="10"
     d="m 380.68634,270.70788 h -69.17179 c -9.6239,0 -23.45826,5.41345 -30.67618,11.42838 l -56.5404,50.52548 -19.84929,-19.84929 h -57.1419 l 60.14937,65.5628 c 4.21045,4.21046 10.22539,6.61644 15.63882,6.61644 5.41346,0 10.22541,-1.80449 14.43586,-5.41346 l 32.48066,-28.27019 v 81.80313 H 414.37 V 304.99302 c 0.60147,-19.2478 -14.43587,-34.28514 -33.68366,-34.28514 z"
     id="path9" />
  <line
     style="fill:none;stroke:#000000;stroke-width:12.02984238;stroke-linecap:round;stroke-linejoin:round;stroke-miterlimit:10;stroke-dasharray:none"
     stroke-miterlimit="10"
     x1="290.46225"
     y1="433.71271"
     x2="408.35489"
     y2="284.54218"
     id="line11" />
  <line
     style="fill:none;stroke:#000000;stroke-width:12.02984238;stroke-linecap:round;stroke-linejoin:round;stroke-miterlimit:10;stroke-dasharray:none"
     stroke-miterlimit="10"
     x1="270.61304"
     y1="403.03647"
     x2="376.47574"
     y2="271.30942"
     id="line13" />
  <path
     style="fill:none;stroke:#000000;stroke-width:12.02984238;stroke-linecap:round;stroke-linejoin:round;stroke-miterlimit:10;stroke-dasharray:none"
     inkscape:connector-curvature="0"
     stroke-miterlimit="10"
     d="m 306.70261,204.54358 c 0,23.45825 18.64629,42.10457 42.10451,42.10457 23.45832,0 42.10464,-18.64632 42.10464,-42.10457"
     id="path15" />
  <path
     style="fill:none;stroke:#000000;stroke-width:12.02984238;stroke-linecap:round;stroke-linejoin:round;stroke-miterlimit:10;stroke-dasharray:none"
     inkscape:connector-curvature="0"
     stroke-miterlimit="10"
     d="M 390.91176,204.54358 H 286.25182 c -3.00747,0 -4.81196,-3.60896 -2.40598,-6.01494 l 22.85677,-18.0448 h 84.20915 v 24.05974 z"
     id="path17" />
  <path
     sodipodi:type="arc"
     style="color:#000000;fill:none;stroke:#124dc8;stroke-width:34.45328981000000113;stroke-linecap:round;stroke-linejoin:miter;stroke-miterlimit:4;stroke-opacity:1;stroke-dasharray:none;stroke-dashoffset:0;marker:none;visibility:visible;display:inline;overflow:visible;enable-background:accumulate"
     id="path2987"
     sodipodi:cx="252.52119"
     sodipodi:cy="231.63135"
     sodipodi:rx="284.15234"
     sodipodi:ry="284.15234"
     d="m 536.67354,231.63135 a 284.15234,284.15234 0 1 1 -568.304689,0 284.15234,284.15234 0 1 1 568.304689,0 z"
     transform="matrix(0.78253689,0,0,0.7896367,92.392846,107.09539)" />
</svg>

<svg width="580" height="580" viewBox="0 0 580 580" fill="none" xmlns="http://www.w3.org/2000/svg">
<path opacity="0.617391" d="M512.36 290C512.36 349.508 488.933 406.58 447.232 448.659C405.531 490.737 348.973 514.377 290 514.377C231.027 514.377 174.468 490.737 132.768 448.659C91.0674 406.58 67.6403 349.508 67.6403 290C67.6403 230.491 91.0674 173.42 132.768 131.341C174.468 89.2625 231.027 65.6228 290 65.6228C348.973 65.6228 405.531 89.2625 447.232 131.341C488.933 173.42 512.36 230.491 512.36 290V290Z" fill="#FEFEFE"/>
<path d="M390.912 180.484V155.221L288.658 144.394C283.846 143.793 280.838 149.206 283.244 152.815L306.703 180.484" stroke="black" stroke-width="12.0298" stroke-miterlimit="10" stroke-linecap="round" stroke-linejoin="round"/>
<path d="M208.058 312.813H150.916C147.307 312.813 144.901 311.61 144.299 308.001L126.255 219.581C125.653 215.371 126.856 210.559 133.472 210.559H188.81C193.02 210.559 196.028 212.363 196.629 215.972L214.674 306.196C215.276 309.204 213.471 312.813 208.058 312.813V312.813Z" stroke="black" stroke-width="12.0298" stroke-miterlimit="10" stroke-linecap="round" stroke-linejoin="round"/>
<path d="M131.066 211.16L205.652 180.484C208.659 179.882 211.667 181.687 212.268 184.694L232.719 287.55" stroke="black" stroke-width="12.0298" stroke-miterlimit="10" stroke-linecap="round" stroke-linejoin="round"/>
<path d="M380.686 270.708H311.515C301.891 270.708 288.056 276.121 280.838 282.136L224.298 332.662L204.449 312.813H147.307L207.456 378.375C211.667 382.586 217.682 384.992 223.095 384.992C228.508 384.992 233.32 383.187 237.531 379.578L270.011 351.308V433.111H414.37V304.993C414.971 285.745 399.934 270.708 380.686 270.708Z" stroke="black" stroke-width="12.0298" stroke-miterlimit="10" stroke-linecap="round" stroke-linejoin="round"/>
<path d="M290.462 433.713L408.355 284.542" stroke="black" stroke-width="12.0298" stroke-miterlimit="10" stroke-linecap="round" stroke-linejoin="round"/>
<path d="M270.613 403.037L376.476 271.31" stroke="black" stroke-width="12.0298" stroke-miterlimit="10" stroke-linecap="round" stroke-linejoin="round"/>
<path d="M306.703 204.543C306.703 228.002 325.349 246.648 348.807 246.648C372.265 246.648 390.912 228.002 390.912 204.543" stroke="black" stroke-width="12.0298" stroke-miterlimit="10" stroke-linecap="round" stroke-linejoin="round"/>
<path d="M390.912 204.544H286.252C283.244 204.544 281.44 200.935 283.846 198.529L306.703 180.484H390.912V204.544V204.544Z" stroke="black" stroke-width="12.0298" stroke-miterlimit="10" stroke-linecap="round" stroke-linejoin="round"/>
<path d="M512.36 290C512.36 349.508 488.933 406.58 447.232 448.659C405.531 490.737 348.973 514.377 290 514.377C231.027 514.377 174.468 490.737 132.768 448.659C91.0674 406.58 67.6403 349.508 67.6403 290C67.6403 230.491 91.0674 173.42 132.768 131.341C174.468 89.2625 231.027 65.6228 290 65.6228C348.973 65.6228 405.531 89.2625 447.232 131.341C488.933 173.42 512.36 230.491 512.36 290V290Z" stroke="#124DC8" stroke-width="27.083" stroke-linecap="round"/>
</svg>
